X:1
T:Pleyel’s Hymn, 77.77
T:Pleyel’s Hymn, 77.77
T:Ignaz Joseph Pleyel, 1791
T:Public Domain Courtesy of the Cyber Hymnal™
C:Ignaz Joseph Pleyel, 1791
Z:Public Domain
Z:Courtesy of the Cyber Hymnal™
%%score ( 1 2 ) ( 3 4 )
L:1/8
Q:1/4=112
M:4/4
K:G
V:1 treble 
V:2 treble 
V:3 bass 
V:4 bass 
V:1
 [DB]2 [Dd]2 [DA]3 [DB] | [Ec]2 [DA]2 [DB]4 | [DB]2 [Dd]2 [DA]3 [DB] | [Ec]2 [CA]2 [B,G]4 | %4
 [DA]2 [^DB]2 [EG]3 [EA] | [DF]2 [^CE]2 D4 | [DB]2 [Dd]2 [DA]3 [DB] | [Ec]2 A2 [B,G]4 |] %8
V:2
 x8 | x8 | x8 | x8 | x8 | x4 D4 | x8 | x2 (DC) x4 |] %8
V:3
 [G,,G,]2 [B,,G,]2 [D,F,]3 [B,,G,] | [A,,G,]2 [D,F,]2 [G,,G,]4 | %2
 [G,,G,]2 [B,,G,]2 [D,F,]3 [B,,G,] | [A,,G,]2 [D,F,]2 [G,,G,]4 | [D,F,]2 [B,,B,]2 [E,B,]3 [^C,A,] | %5
 [D,A,]2 [A,,G,]2 [D,F,]4 | [G,,G,]2 [B,,G,]2 [D,F,]3 G, | [C,G,]2 [D,F,]2 [G,,G,]4 |] %8
V:4
 x8 | x8 | x8 | x8 | x8 | x8 | x7 G, | x8 |] %8

